src/parts/tops/LongHairStraight2.svg

<svg>
  <g
    id="Top"
    strokeWidth="1"
    fillRule="evenodd"
  >
    <defs>
      <rect
        id="LongHairStraight2-path1"
        x="0"
        y="0"
        width="264"
        height="280"
      />
      <path
        id="LongHairStraight2-path2"
        d="M21,157.540812 L21,69.046252 C21,65.5140485 21.3981158,62.0748299 22.1519234,58.7710202 C25.205041,38.7314193 36.7752683,22.8108863 50,13 C69.9046441,-1.75961713 103.441939,-6.01828252 115.047069,11.5221046 C123.698343,7.68103538 136.519049,11.1821114 146,20 C155.565156,29.4150438 163.19967,50.1973768 158.657409,67.2035172 C158.762104,68.4691962 158.815476,69.7490355 158.815476,71.0408963 L158.815476,92.8921195 C157.934142,87.9183006 153.988995,84.0029116 149,83.1659169 L149,83 C142.963851,61.4642087 125.229516,51.5800472 114.429684,41.777113 C97.5353566,60.6732583 44.8226408,60.7398069 27,98 L27,108 C27,114.018625 31.4308707,119.002364 37.2085808,119.867187 C38.9518066,140.114792 51.4692178,157.282984 69,165.610951 L69,166 C71.9303712,209.855112 62.358462,264.797432 0,248 C13.6057325,240.037752 20.8081123,189.055563 21,157.540812 Z M117,165.610951 C134.530782,157.282984 147.048193,140.114792 148.791419,119.867187 C153.87876,119.105701 157.921895,115.150816 158.815476,110.107881 L158.815476,111.47039 L158.815476,111.47039 C158.815476,127.298552 162.572711,142.900645 169.7782,156.993609 L196.726668,209.701177 C203.689761,223.320048 201.645562,239.173573 192.790715,250.468968 C189.966212,213.288807 158.90349,184 121,184 L121,184 L117,184 L117,165.610951 Z"
      />
      <path
        id="LongHairStraight2-path3"
        d="M65.1802189,77.7372986 C67.3631845,76.1045334 80.4065113,75.4786511 82.757829,74.0894494 C83.4916461,73.6553857 84.0610723,73.215719 84.4997781,72.7800074 C84.938814,73.215719 85.5085703,73.6553857 86.2423874,74.0894494 C88.593375,75.4786511 101.636702,76.1045334 103.819667,77.7372986 C106.030032,79.3908276 107.643571,83.1846831 107.466966,86.15095 C107.255041,89.7101408 103.361486,98.2028927 93.6723269,99.1811016 C91.5576925,96.8281927 88.2368647,95.3104528 84.4997781,95.3104528 C80.7633517,95.3104528 77.4421938,96.8281927 75.3275594,99.1811016 C65.6387308,98.2028927 61.7451757,89.7101408 61.5332501,86.15095 C61.3566455,83.1846831 62.9701849,79.3908276 65.1802189,77.7372986 M103.141638,94.9063813 C103.142958,94.9057221 103.144609,94.905063 103.145929,94.9047334 C103.144278,94.905063 103.142958,94.9057221 103.141638,94.9063813 M65.8453747,94.9014375 C65.8493359,94.9030855 65.8565982,94.9057221 65.8618798,94.9076997 C65.8565982,94.9057221 65.8509864,94.9034151 65.8453747,94.9014375 M144.86259,55.9853335 C144.47439,50.0303878 143.277769,44.1519058 142.233986,38.2862777 C141.952739,36.7072349 140.423706,26 139.734783,26 C139.502391,35.1094058 138.701893,44.0803858 137.669664,53.1393651 C137.361018,55.8475668 137.037848,58.5564277 136.825262,61.2741874 C136.653609,63.4695546 136.959614,66.1220564 136.427819,68.2455739 C135.749129,70.9524573 132.348087,73.4783984 129.702978,74.410795 C123.102915,76.7373371 117.597802,67.1077689 111.960977,64.2911336 C104.643272,60.6347152 92.0637391,59.7639895 84.5816434,64.5297918 C76.9361472,59.7639895 64.356614,60.6347152 57.0389092,64.2911336 C51.4024147,67.1077689 45.8969708,76.7373371 39.2972383,74.410795 C36.6521296,73.4783984 33.2504268,70.9524573 32.572397,68.2455739 C32.0402723,66.1220564 32.346277,63.4695546 32.174954,61.2741874 C31.9623682,58.5564277 31.6388681,55.8475668 31.3302226,53.1393651 C30.2983232,44.0803858 29.4974953,35.1094058 29.2654335,26 C28.5761802,26 27.0468169,36.7072349 26.7658999,38.2862777 C25.7221169,44.1519058 24.5258266,50.0303878 24.1376265,55.9853335 C23.738533,62.1047422 24.2148704,68.1674622 25.4695887,74.1632765 C26.0687242,77.0277016 26.7685407,79.8756475 27.518863,82.7041478 C28.352701,85.8467429 27.198994,91.9661516 27.5723395,95.1921317 C28.2787581,101.29572 31.1542781,113.199679 34.3833375,118.45096 C35.9440605,120.989096 37.7734867,122.573742 39.816489,124.619148 C41.7825775,126.58809 42.6038717,129.640049 44.7260985,131.73687 C48.6820428,135.645092 54.4456266,137.971304 60.3656788,138.543134 C65.6773527,143.050212 74.505605,146 84.4997781,146 C94.4946114,146 103.322534,143.050212 108.634538,138.543134 C114.55393,137.971304 120.317843,135.645092 124.274118,131.73687 C126.396015,129.640049 127.217309,126.58809 129.183727,124.619148 C131.2264,122.573742 133.055826,120.989096 134.616879,118.45096 C137.845608,113.199679 140.721458,101.29572 141.427547,95.1921317 C141.800892,91.9661516 140.647185,85.8467429 141.481353,82.7041478 C142.231676,79.8756475 142.931162,77.0277016 143.530628,74.1632765 C144.784686,68.1674622 145.261353,62.1047422 144.86259,55.9853335 Z"
      />
    </defs>
    <mask
      id="LongHairStraight2-mask1"
      fill="white"
    >
      <use href="#LongHairStraight2-path1" />
    </mask>
    <g id="Mask" />
    <g
      id="Top/Long-Hair/Straight"
      mask="url('#LongHairStraight2-mask1')"
    >
      <g transform="translate(-1.000000, 0.000000)">
        <g
          id="Hair"
          strokeWidth="1"
          fill="none"
          fillRule="evenodd"
          transform="translate(40.000000, 15.000000)"
        >
          <mask
            id="LongHairStraight2-mask2"
            fill="white"
          >
            <use href="#LongHairStraight2-path2" />
          </mask>
          <use
            class="CustomColor"
            fill="var(--avataaar-hair-color)"
            href="#LongHairStraight2-path2"
          />
        </g>
        <path
          id="Shadow"
          d="M67,113 C84.8226408,80.6646674 137.535357,80.6069148 154.429684,64.2083647 C165.207546,72.6982916 182.891727,79.2665518 188.963018,97.8687161 C182.891727,76.423995 165.207546,66.5601054 154.429684,56.777113 C137.535357,75.6732583 84.8226408,75.7398069 67,113 Z"
          opacity="0.16"
          fill="#000000"
          fillRule="evenodd"
        />
      </g>
    </g>
  </g>
</svg>

<svg>
  <g id="Top">
    <defs>
      <path id="LongHairStraight2-path1" d="M0 0h264v280H0z"/>
      <path id="LongHairStraight2-path2" d="M21 157.54V69.047c0-3.532.398-6.971 1.152-10.275C25.205 38.731 36.775 22.811 50 13c19.905-14.76 53.442-19.018 65.047-1.478C123.698 7.681 136.52 11.182 146 20c9.565 9.415 17.2 30.197 12.657 47.204.105 1.265.158 2.545.158 3.837v21.851A12.01 12.01 0 0 0 149 83.166V83c-6.036-21.536-23.77-31.42-34.57-41.223C97.535 60.673 44.823 60.74 27 98v10c0 6.019 4.43 11.002 10.209 11.867 1.743 20.248 14.26 37.416 31.791 45.744V166c2.93 43.855-6.642 98.797-69 82 13.606-7.962 20.808-58.944 21-90.46Zm96 8.071c17.53-8.328 30.048-25.496 31.791-45.744a12.01 12.01 0 0 0 10.024-9.76v1.363a100 100 0 0 0 10.963 45.524l26.949 52.707c6.963 13.619 4.919 29.473-3.936 40.768C189.966 213.289 158.903 184 121 184h-4v-18.389Z"/>
      <path id="LongHairStraight2-path3" d="M65.18 77.737c2.183-1.632 15.227-2.258 17.578-3.648.734-.434 1.303-.873 1.742-1.309.439.436 1.009.875 1.742 1.31 2.351 1.389 15.395 2.015 17.578 3.647 2.21 1.654 3.824 5.448 3.647 8.414-.212 3.56-4.106 12.052-13.795 13.03-2.114-2.353-5.435-3.87-9.172-3.87-3.737 0-7.058 1.517-9.172 3.87-9.69-.978-13.583-9.47-13.795-13.03-.176-2.966 1.437-6.76 3.647-8.414m.665 17.164.017.007-.017-.007m79.018-38.916c-.389-5.955-1.585-11.833-2.629-17.699-.281-1.579-1.81-12.286-2.5-12.286-.232 9.11-1.032 18.08-2.064 27.14-.309 2.708-.632 5.416-.845 8.134-.171 2.196.135 4.848-.397 6.972-.679 2.706-4.08 5.232-6.725 6.165-6.6 2.326-12.105-7.303-17.742-10.12-7.318-3.656-19.897-4.527-27.38.239-7.645-4.766-20.224-3.895-27.542-.239-5.637 2.817-11.142 12.446-17.742 10.12-2.645-.933-6.047-3.459-6.725-6.165-.532-2.124-.226-4.776-.397-6.972-.213-2.718-.536-5.426-.845-8.135C30.298 44.08 29.497 35.11 29.265 26c-.689 0-2.218 10.707-2.5 12.286-1.043 5.866-2.24 11.744-2.627 17.7-.4 6.119.077 12.181 1.332 18.177a165.44 165.44 0 0 0 2.049 8.541c.834 3.143-.32 9.262.053 12.488.707 6.104 3.582 18.008 6.811 23.259 1.561 2.538 3.39 4.123 5.433 6.168 1.967 1.97 2.788 5.021 4.91 7.118 3.956 3.908 9.72 6.234 15.64 6.806C65.677 143.05 74.506 146 84.5 146c9.995 0 18.823-2.95 24.135-7.457 5.919-.572 11.683-2.898 15.64-6.806 2.121-2.097 2.942-5.149 4.909-7.118 2.042-2.045 3.872-3.63 5.433-6.168 3.229-5.251 6.104-17.155 6.81-23.259.374-3.226-.78-9.345.054-12.488.75-2.828 1.45-5.676 2.05-8.54 1.254-5.997 1.73-12.06 1.332-18.179Z"/>
    </defs>
    <mask id="LongHairStraight2-mask1" fill="#fff">
      <use href="#LongHairStraight2-path1"/>
    </mask>
    <g id="Top/Long-Hair/Straight" mask="url('#LongHairStraight2-mask1')">
      <g transform="translate(-1)">
        <g id="Hair" fill="none" transform="translate(40 15)">
          <mask id="LongHairStraight2-mask2" fill="#fff">
            <use href="#LongHairStraight2-path2"/>
          </mask>
          <use fill="var(--avataaar-hair-color)" class="CustomColor" href="#LongHairStraight2-path2"/>
        </g>
        <path id="Shadow" fill="#000" d="M67 113c17.823-32.335 70.535-32.393 87.43-48.792 10.778 8.49 28.462 15.059 34.533 33.66-6.071-21.444-23.755-31.308-34.533-41.09C137.535 75.672 84.823 75.74 67 113Z" opacity=".16"/>
      </g>
    </g>
  </g>
</svg>
